gtk-icons/Papirus-GTK/24x24/actions/view-bank-account.svg

<?xml version="1.0" encoding="UTF-8" standalone="no"?>
<!-- Created with Inkscape (http://www.inkscape.org/) -->

<svg
   xmlns:osb="http://www.openswatchbook.org/uri/2009/osb"
   xmlns:dc="http://purl.org/dc/elements/1.1/"
   xmlns:cc="http://creativecommons.org/ns#"
   xmlns:rdf="http://www.w3.org/1999/02/22-rdf-syntax-ns#"
   xmlns:svg="http://www.w3.org/2000/svg"
   xmlns="http://www.w3.org/2000/svg"
   xmlns:sodipodi="http://sodipodi.sourceforge.net/DTD/sodipodi-0.dtd"
   xmlns:inkscape="http://www.inkscape.org/namespaces/inkscape"
   sodipodi:docname="view-bank-account.svg"
   inkscape:export-filename="/home/sam/source-symbolic.png"
   inkscape:export-xdpi="270"
   inkscape:export-ydpi="270"
   height="24"
   id="svg7384"
   style="enable-background:new"
   version="1.1"
   inkscape:version="0.91 r13725"
   width="24">
  <sodipodi:namedview
     inkscape:bbox-nodes="true"
     inkscape:bbox-paths="false"
     bordercolor="#666666"
     borderlayer="false"
     borderopacity="1"
     inkscape:current-layer="layer12"
     inkscape:cx="-2.9928876"
     inkscape:cy="3.7974501"
     gridtolerance="10"
     inkscape:guide-bbox="true"
     guidetolerance="10"
     id="namedview88"
     inkscape:object-nodes="true"
     inkscape:object-paths="true"
     objecttolerance="10"
     pagecolor="#f7f7f7"
     inkscape:pageopacity="0"
     inkscape:pageshadow="2"
     showborder="true"
     showgrid="false"
     showguides="true"
     inkscape:showpageshadow="false"
     inkscape:snap-bbox="true"
     inkscape:snap-bbox-edge-midpoints="false"
     inkscape:snap-bbox-midpoints="true"
     inkscape:snap-center="false"
     inkscape:snap-global="true"
     inkscape:snap-grids="true"
     inkscape:snap-intersection-paths="true"
     inkscape:snap-midpoints="true"
     inkscape:snap-nodes="true"
     inkscape:snap-object-midpoints="true"
     inkscape:snap-others="true"
     inkscape:snap-page="false"
     inkscape:snap-smooth-nodes="true"
     inkscape:snap-to-guides="true"
     inkscape:window-height="847"
     inkscape:window-maximized="1"
     inkscape:window-width="1600"
     inkscape:window-x="0"
     inkscape:window-y="30"
     inkscape:zoom="14.06">
    <inkscape:grid
       color="#000000"
       dotted="false"
       empcolor="#0800ff"
       empopacity="0.4627451"
       empspacing="4"
       enabled="true"
       id="grid4866"
       opacity="0.16470588"
       originx="-224.0002"
       originy="-316.00336"
       snapvisiblegridlinesonly="true"
       spacingx="0.25px"
       spacingy="0.25px"
       type="xygrid"
       visible="true" />
  </sodipodi:namedview>
  <metadata
     id="metadata90">
    <rdf:RDF>
      <cc:Work
         rdf:about="">
        <dc:format>image/svg+xml</dc:format>
        <dc:type
           rdf:resource="http://purl.org/dc/dcmitype/StillImage" />
        <dc:title>Paper Symbolic Icon Theme</dc:title>
      </cc:Work>
    </rdf:RDF>
  </metadata>
  <title
     id="title8473">Paper Symbolic Icon Theme</title>
  <defs
     id="defs7386">
    <linearGradient
       id="linearGradient5606"
       osb:paint="solid">
      <stop
         id="stop5608"
         offset="0"
         style="stop-color:#000000;stop-opacity:1;" />
    </linearGradient>
  </defs>
  <g
     inkscape:groupmode="layer"
     id="layer12"
     inkscape:label="actions"
     style="display:inline"
     transform="translate(-465.0004,107.00336)">
    <path
       style="opacity:0.5;fill:#000000;fill-opacity:1;stroke:none"
       d="M 12 5 L 5 12 L 7 12 L 7 19 L 17 19 L 17 12 L 19 12 L 12 5 z M 12 10 C 13.10457 10 14 10.895467 14 12 C 14 13.104533 13.10457 14 12 14 C 14.99989 13.9982 15 16.400391 15 16.400391 L 15 17 L 9 17 L 9 16.400391 C 9 16.400391 8.99989 14.0018 12 14 C 10.89543 14 10 13.104533 10 12 C 10 10.895467 10.89543 10 12 10 z "
       transform="translate(465.0004,-107.00336)"
       id="path16259-2" />
  </g>
</svg>

<?xml version="1.0" encoding="UTF-8" standalone="no"?>
<!-- Created with Inkscape (http://www.inkscape.org/) -->
<svg id="svg7384" xmlns:rdf="http://www.w3.org/1999/02/22-rdf-syntax-ns#" style="enable-background:new" xmlns="http://www.w3.org/2000/svg" xmlns:osb="http://www.openswatchbook.org/uri/2009/osb" height="24" width="24" version="1.1" xmlns:cc="http://creativecommons.org/ns#" xmlns:dc="http://purl.org/dc/elements/1.1/">
 <metadata id="metadata90">
  <rdf:RDF>
   <cc:Work rdf:about="">
    <dc:format>image/svg+xml</dc:format>
    <dc:type rdf:resource="http://purl.org/dc/dcmitype/StillImage"/>
    <dc:title>Paper Symbolic Icon Theme</dc:title>
   </cc:Work>
  </rdf:RDF>
 </metadata>
 <title id="title8473">Paper Symbolic Icon Theme</title>
 <g id="layer12" transform="translate(-465 107)">
  <path id="path16259-2" opacity=".5" d="m12 5l-7 7h2v7h10v-7h2l-7-7zm0 5c1.105 0 2 0.895 2 2s-0.895 2-2 2c3-0.002 3 2.4 3 2.4v0.6h-6v-0.6s-0.0001-2.398 3-2.4c-1.105 0-2-0.895-2-2s0.895-2 2-2z" transform="translate(465 -107)"/>
 </g>
</svg>
